img/icon/rate-cup-3.svg

<svg width="50" height="50" viewBox="0 0 50 50" fill="none" xmlns="http://www.w3.org/2000/svg">
<g clip-path="url(#clip0)">
<rect width="50" height="50" rx="25" fill="url(#paint0_linear)" fill-opacity="0.05"/>
<path d="M34.2308 15H15.7692C15.3442 15 15 15.3446 15 15.7692V19.6154C15 22.16 16.7254 24.2308 18.8462 24.2308C18.8462 27.3631 21.2 29.9508 24.2308 30.3312V31.1838C22.2588 31.3327 20.3846 32.0585 20.3846 33.4615V34.2308C20.3846 34.6554 20.7292 35 21.1538 35H28.8462C29.2708 35 29.6154 34.6554 29.6154 34.2308V33.4615C29.6154 32.0585 27.7412 31.3327 25.7692 31.1838V30.3312C28.8 29.9508 31.1538 27.3631 31.1538 24.2308C33.2746 24.2308 35 22.1604 35 19.6154V15.7692C35 15.3446 34.6554 15 34.2308 15ZM16.5385 19.6154V16.5385H18.8462V22.6923C17.5735 22.6923 16.5385 21.3119 16.5385 19.6154ZM21.9419 33.4615C22.1404 33.21 23.1942 32.6923 25 32.6923C26.8058 32.6923 27.8596 33.21 28.0577 33.4615H21.9419ZM29.6154 24.2308C29.6154 26.7758 27.5446 28.8462 25 28.8462C23.7669 28.8462 22.6081 28.3662 21.7362 27.4942C20.8646 26.6227 20.3846 25.4635 20.3846 24.2308V16.5385H29.6154V24.2308ZM33.4615 19.6154C33.4615 21.3119 32.4265 22.6923 31.1538 22.6923V16.5385H33.4615V19.6154Z" fill="url(#paint1_linear)"/>
<path d="M24.2537 22.8395H24.9023C25.5634 22.8395 25.9352 23.1122 25.9352 23.608C25.9352 24.046 25.5593 24.3434 25.018 24.3434C24.4313 24.3434 24.0719 24.046 24.0347 23.6411H22.5886C22.6465 24.7855 23.6133 25.5334 25.018 25.5334C26.5137 25.5334 27.4763 24.8145 27.4763 23.6989C27.4763 22.8933 26.9062 22.3851 26.0055 22.2942V22.2652C26.6872 22.1289 27.2408 21.6414 27.2408 20.877C27.2408 19.8648 26.303 19.274 25.0098 19.274C23.6918 19.274 22.7828 19.9929 22.7291 21.1332H24.1049C24.138 20.6828 24.4851 20.4019 25.0098 20.4019C25.518 20.4019 25.832 20.6581 25.832 21.0919C25.832 21.5257 25.4766 21.8108 24.8941 21.8108H24.2537V22.8395Z" fill="url(#paint2_linear)"/>
</g>
<defs>
<linearGradient id="paint0_linear" x1="25" y1="0" x2="25" y2="50" gradientUnits="userSpaceOnUse">
<stop stop-color="#E3BA6D"/>
<stop offset="1" stop-color="#D0A85E"/>
</linearGradient>
<linearGradient id="paint1_linear" x1="25" y1="15" x2="25" y2="35" gradientUnits="userSpaceOnUse">
<stop stop-color="#E3BA6D"/>
<stop offset="1" stop-color="#D0A85E"/>
</linearGradient>
<linearGradient id="paint2_linear" x1="25" y1="15" x2="25" y2="35" gradientUnits="userSpaceOnUse">
<stop stop-color="#E3BA6D"/>
<stop offset="1" stop-color="#D0A85E"/>
</linearGradient>
<clipPath id="clip0">
<rect width="50" height="50" rx="25" fill="white"/>
</clipPath>
</defs>
</svg>

<svg width="50" height="50" fill="none" xmlns="http://www.w3.org/2000/svg"><g clip-path="url(#clip0)"><rect width="50" height="50" rx="25" fill="url(#paint0_linear)" fill-opacity=".05"/><path d="M34.23 15H15.77a.77.77 0 0 0-.77.77v3.845c0 2.545 1.725 4.616 3.846 4.616 0 3.132 2.354 5.72 5.385 6.1v.853c-1.972.149-3.846.875-3.846 2.277v.77a.77.77 0 0 0 .769.769h7.692a.77.77 0 0 0 .77-.77v-.768c0-1.404-1.875-2.13-3.847-2.278v-.853c3.031-.38 5.385-2.968 5.385-6.1 2.12 0 3.846-2.07 3.846-4.616V15.77a.77.77 0 0 0-.77-.769zm-17.69 4.615V16.54h2.307v6.153c-1.273 0-2.308-1.38-2.308-3.077zm5.403 13.847c.198-.252 1.252-.77 3.058-.77 1.806 0 2.86.518 3.058.77h-6.116zm7.673-9.231A4.62 4.62 0 0 1 25 28.846a4.585 4.585 0 0 1-3.264-1.352 4.585 4.585 0 0 1-1.351-3.263v-7.693h9.23v7.693zm3.847-4.616c0 1.697-1.036 3.077-2.308 3.077v-6.154h2.308v3.077z" fill="url(#paint1_linear)"/><path d="M24.254 22.84h.648c.661 0 1.033.272 1.033.768 0 .438-.376.735-.917.735-.587 0-.946-.297-.983-.702h-1.446c.058 1.145 1.024 1.892 2.429 1.892 1.496 0 2.458-.719 2.458-1.834 0-.806-.57-1.314-1.47-1.405v-.029c.681-.136 1.235-.624 1.235-1.388 0-1.012-.938-1.603-2.231-1.603-1.318 0-2.227.719-2.28 1.86h1.375c.033-.451.38-.732.905-.732.508 0 .822.256.822.69 0 .434-.355.719-.938.719h-.64v1.029z" fill="url(#paint2_linear)"/></g><defs><linearGradient id="paint0_linear" x1="25" x2="25" y2="50" gradientUnits="userSpaceOnUse"><stop stop-color="#E3BA6D"/><stop offset="1" stop-color="#D0A85E"/></linearGradient><linearGradient id="paint1_linear" x1="25" y1="15" x2="25" y2="35" gradientUnits="userSpaceOnUse"><stop stop-color="#E3BA6D"/><stop offset="1" stop-color="#D0A85E"/></linearGradient><linearGradient id="paint2_linear" x1="25" y1="15" x2="25" y2="35" gradientUnits="userSpaceOnUse"><stop stop-color="#E3BA6D"/><stop offset="1" stop-color="#D0A85E"/></linearGradient><clipPath id="clip0"><rect width="50" height="50" rx="25" fill="#fff"/></clipPath></defs></svg>
